X:670
T:
N:Angläs;
S:ur en handskriven dansbok tillhörande Gotlands fornsal.
R:kadrilj
O:Gotland
M:2/4
L:1/16
K:G
d2|dcBc d2g2|edcd e2a2|gfef d2ef|1 g2b2d2:|2 g2b2g2|:d2|cdBc AcBd|c2a^g
a2Ac|BcAc BdFA|G2g2G2:|

